X:415
T:Connie O'Connell's
R:jig
Z:Transcribed by Dave Marshall
M:6/8
K:G
|:BGG Add | ~B3 BAG | BGG ADD | GAG GED |
BGG Add | ~B3 ABc | dge f2d | cAF G3:|
|:GBd ~g3 | fed cAF | GBd ~g3 | faf ~g3 | faf g2e | fed cAG
|1 ~B3 BAG | BdB cAF :|2 faf gfe | ~d3 dcA
|: GBB ~B2d | ~c3 ABA | GBB BAG | BdB cBA |
GBB ~B2d | ~c3 ABc | dge f2d | cAF G3 :|
